svg/fluentui-system-icons/ic_fluent_clipboard_data_bar_24_filled.svg

<svg width="24" height="24" viewBox="0 0 24 24" fill="none" xmlns="http://www.w3.org/2000/svg">
<path d="M10.25 3.5H13.75C14.1642 3.5 14.5 3.83579 14.5 4.25C14.5 4.66421 14.1642 5 13.75 5H10.25C9.83579 5 9.5 4.66421 9.5 4.25C9.5 3.83579 9.83579 3.5 10.25 3.5ZM13.75 2H10.25C9.09205 2 8.13841 2.87472 8.01379 3.99944L6.25 4C5.00736 4 4 5.00736 4 6.25V19.75C4 20.9926 5.00736 22 6.25 22H17.75C18.9926 22 20 20.9926 20 19.75V6.25C20 5.00736 18.9926 4 17.75 4L15.9862 3.99944C15.8616 2.87472 14.9079 2 13.75 2ZM16.5 13.75V17.25C16.5 17.6642 16.1642 18 15.75 18C15.3358 18 15 17.6642 15 17.25V13.75C15 13.3358 15.3358 13 15.75 13C16.1642 13 16.5 13.3358 16.5 13.75ZM12 11C12.4142 11 12.75 11.3358 12.75 11.75V17.25C12.75 17.6642 12.4142 18 12 18C11.5858 18 11.25 17.6642 11.25 17.25V11.75C11.25 11.3358 11.5858 11 12 11ZM9 9.75V17.25C9 17.6642 8.66421 18 8.25 18C7.83579 18 7.5 17.6642 7.5 17.25V9.75C7.5 9.33579 7.83579 9 8.25 9C8.66421 9 9 9.33579 9 9.75Z" fill="#212121"/>
</svg>

<svg xmlns="http://www.w3.org/2000/svg" width="24" height="24"><path d="M10.25 3.5h3.5a.75.75 0 0 1 0 1.5h-3.5a.75.75 0 0 1 0-1.5Zm3.5-1.5h-3.5a2.25 2.25 0 0 0-2.236 2H6.25A2.25 2.25 0 0 0 4 6.25v13.5A2.25 2.25 0 0 0 6.25 22h11.5A2.25 2.25 0 0 0 20 19.75V6.25A2.25 2.25 0 0 0 17.75 4h-1.764a2.25 2.25 0 0 0-2.236-2Zm2.75 11.75v3.5a.75.75 0 0 1-1.5 0v-3.5a.75.75 0 0 1 1.5 0ZM12 11a.75.75 0 0 1 .75.75v5.5a.75.75 0 0 1-1.5 0v-5.5A.75.75 0 0 1 12 11ZM9 9.75v7.5a.75.75 0 0 1-1.5 0v-7.5a.75.75 0 0 1 1.5 0Z"/></svg>
